X:10
T:Vill ni k\"opa sill?
R:schottis
H:efter min far, som l\"arde den som ung efter ett hembitr\"ade
H:fr{\aa}n Blekinge.
A:Stockholm
Z:hn-schottis-10
M:C|
K:G
GABA G2GA|Bcdc B4|ABcA FDEF|GABG D4|
GABA G2GA|Bcdc B4|ABcA FDEF|1 G2G2 G4:|2 G2G2 GBcd||
|:e2c2 e2e2|dBGB d4|
w:Hej-san grab-bar, vill ni k\"o-pa sill?
cBAG FDEF|G2GB d4|
w:Fem-ton \"or-e val-en el-ler vil-ket ni vill.
e2c2 e2e2|dBGB d4|cBAG FDEF|1 G2G2 GBcd:|2 G2G2 G4||
<end>
<start>
